!!!!SEGMENT: pl-cz--iii-592--005_rygall-ignacy--applaudite-jubilate-tempo-primo-annus-desideratus.krn
!!!cenid: 17xx:1099
!!!COM: Rygall, Ignacy
!!!COM-rismID: pe30110281
!!!CDT: <1750->1799
!!!CNT:
!!!OPR: Applaudite jubilate
!!!OTL: Tempo primo - Annus desideratus
!!!OMV: 005
!!!PDT:
!!!AGN:
!!!SMS-siglum: PL-CZ
!!!SMS-shelfmark: III-592
!!!SMS-shelfwork: 001-005 M
!!!SMS-variant:
!!!SMS-altvar:
!!!NIFC-rismSourceID: 300001121
!!!NIFC-rismChildID: 300001121
!!!NIFC-islandoraID: pl-cz:39438
!!!URL-pdf-islandora: https://repozytorium.nifc.pl/islandora/object/pl-cz%3A39438/datastream/PDF/view
!!!URL-scan:
!!!ONB-nifc: UWAGA: części Applaudite jubilate: Euntre, Basso solo – Applaudite jubilate, Aria - Annus desideratus (Allegro molto), Basso solo – Urget filialis (Adagio), Tempo primo – Annus desideratus, Recitativo – Roboent ergo, Coro – Vivat Provincialis Wiktor
!!!AIN: 1 cbass 4 empty 2 oboe 1 timpa 2 violn 1 vox
!!!key: D
**kern	**dynam	**kern	**dynam	**kern	**kern	**kern	**kern	**kern	**kern	**kern	**kern	**text	**kern	**kern	**kern	**kern	**kern
*part11	*	*part11	*part11	*part10	*part10	*part9	*part9	*part8	*part7	*part6	*part6	*part6	*part5	*part4	*part3	*part2	*part1
*staff15	*	*staff14	*	*staff13	*staff12	*staff11	*staff10	*staff9	*staff8	*staff7	*staff6	*staff6	*staff5	*staff4	*staff3	*staff2	*staff1
*Icbass	*	*Iempty	*	*Ivioln	*Iempty	*Ivioln	*Iempty	*Iempty	*Ivox	*Iempty	*Iempty	*	*Itimpa	*Iempty	*Iempty	*Ioboe	*Ioboe
*I"Contrabbasso	*	*	*	*I"Violino Secundo.	*	*I"Violino Primo.	*	*I"Canto IIdo	*I"Canto 1mo	*I"Basso solo	*	*	*I"Tympano	*I"Cornu IIdo in D	*I"Cornu 1mo in D	*I"Oboe IIdo	*I"Oboe 1mo
*I'C-b.	*	*	*	*I'V-no II	*	*I'V-no I	*	*I'C. II	*I'C. I	*I'B.s.	*	*	*I'Timp.	*I'C. II	*I'C. I	*I'Ob. II	*I'Ob. I
*IC	*	*	*	*	*	*	*	*	*	*	*	*	*	*	*	*	*
*clefF4	*	*clefF4	*	*clefG2	*clefG2	*clefG2	*clefF4	*clefC1	*clefC1	*clefF4	*clefF4	*	*clefF4	*clefG2	*clefG2	*clefG2	*clefG2
*ITrd0c0	*	*ITrd0c0	*	*	*	*	*	*	*	*	*	*	*	*ITrd6c10	*ITrd6c10	*	*
*k[f#c#]	*	*k[f#c#]	*	*k[f#c#]	*k[f#c#]	*k[f#c#]	*k[f#c#]	*k[f#c#]	*k[f#c#]	*k[f#c#]	*k[f#c#]	*	*k[f#c#]	*k[f#c#]	*k[f#c#]	*k[f#c#]	*k[f#c#]
*D:	*	*D:	*	*D:	*D:	*D:	*D:	*D:	*D:	*D:	*D:	*	*D:	*D:	*D:	*D:	*D:
*M4/4	*	*M4/4	*	*M4/4	*M4/4	*M4/4	*M4/4	*M4/4	*M4/4	*M4/4	*M4/4	*	*M4/4	*M4/4	*M4/4	*M4/4	*M4/4
=1	=1	=1	=1	=1	=1	=1	=1	=1	=1	=1	=1	=1	=1	=1	=1	=1	=1
*	*	*	*	*	*	*	*	*	*	*	*2\right	*	*	*	*	*	*
!	!	!	!	!	!	!	!	!	!	!	!	!	!	!	!	!LO:TX:a:t=8	!
!	!	!LO:TX:a:t=Tempo di primo	!	!	!LO:TX:a:t=allo molto	!	!LO:TX:a:t=allo molto	!LO:TX:a:t=Recit&colon; Aria Tace	!	!	!LO:TX:a:t=Tempo di primo	!	!	!LO:TX:a:t=Tempo di primo	!LO:TX:a:t=Tempo di primo	!LO:TX:a:t=allo	!LO:TX:a:t=8
4.A\	.	1ryy	.	4.a\	1ryy	4a/	1ryy	1ryy	1ryy	1ryy	2A\	An-	1r	1r	1r	1r	1r
.	.	.	.	.	.	8a/L	.	.	.	.	.	.	.	.	.	.	.
8A\L	.	.	.	8a\	.	8a/J	.	.	.	.	.	.	.	.	.	.	.
4cn\J	.	.	.	4.ccn\	.	4ccn/	.	.	.	.	4cn\	.	.	.	.	.	.
4E\	.	.	.	.	.	4e#X/	.	.	.	.	4E\	-nus	.	.	.	.	.
.	.	.	.	8e/	.	.	.	.	.	.	.	.	.	.	.	.	.
!LO:LB:g=original	!	!	!	!LO:LB:g=original	!	!	!	!	!	!	!	!	!	!	!	!	!
=2	=2	=2	=2	=2	=2	=2	=2	=2	=2	=2	=2	=2	=2	=2	=2	=2	=2
!	!	!	!	!LO:TX:t=P:problem=mixed beam	!LO:TX:t=P:problem=mixed beam	!	!LO:TX:t=P:problem=mixed beam	!	!	!	!	!	!	!	!	!	!
8D\L	.	1ryy	.	8d#X/L	1ryy	8d#X/L	1ryy	1ryy	1ryy	1ryy	8D#X\L	de-	1r	1r	1r	1r	1r
8cn\	.	.	.	8ccn\	.	8ccn\	.	.	.	.	8cn\	.	.	.	.	.	.
8B\	.	.	.	8b\	.	8b\	.	.	.	.	8B\	-si-	.	.	.	.	.
8A\J	.	.	.	8a\J	.	8a\J	.	.	.	.	8A\J	-de-	.	.	.	.	.
8G\L	.	.	.	8g/L	.	8g/L	.	.	.	.	8G\L	-ra-	.	.	.	.	.
8E\J	.	.	.	8e/J	.	8e/J	.	.	.	.	8E\J	-tus	.	.	.	.	.
4EE/	.	.	.	4r	.	4g\ 4ee	.	.	.	.	4r	.	.	.	.	.	.
=3	=3	=3	=3	=3	=3	=3	=3	=3	=3	=3	=3	=3	=3	=3	=3	=3	=3
4.G\	.	1ryy	.	4.g/	1ryy	4g/	1ryy	1ryy	1ryy	1ryy	2G\	an-	1r	1r	1r	1r	1r
.	.	.	.	.	.	8g/L	.	.	.	.	.	.	.	.	.	.	.
8G\	.	.	.	8g/	.	8g/J	.	.	.	.	.	.	.	.	.	.	.
4.B-X\	.	.	.	4.b-X/	.	4.b-X/	.	.	.	.	4B-X\	.	.	.	.	.	.
.	.	.	.	.	.	.	.	.	.	.	4D\	-nus	.	.	.	.	.
8D\	.	.	.	8d/	.	8d/	.	.	.	.	.	.	.	.	.	.	.
=4	=4	=4	=4	=4	=4	=4	=4	=4	=4	=4	=4	=4	=4	=4	=4	=4	=4
!	!	!	!	!LO:TX:t=P:problem=mixed beam	!	!LO:TX:t=P:problem=mixed beam	!	!	!	!	!	!	!	!	!	!	!
8C#\L	.	1ryy	.	8c#/L	1ryy	8c#X/L	1ryy	1ryy	1ryy	1ryy	8C#X\L	de-	1r	1r	1r	1r	1r
8Bn\	.	.	.	8bn\	.	8bn/	.	.	.	.	8Bn\	.	.	.	.	.	.
8A\	.	.	.	8a\	.	8a/	.	.	.	.	8A\	-si-	.	.	.	.	.
8G\J	.	.	.	8g\J	.	8g/J	.	.	.	.	8G\J	-de-	.	.	.	.	.
8F#\L	.	.	.	8f#/L	.	8f#/L	.	.	.	.	8F#\L	-ra-	.	.	.	.	.
8D\J	.	.	.	8d/J	.	8d/J	.	.	.	.	8D\J	-tus	.	.	.	.	.
!	!	!	!	!LO:TX:t=P:problem=mixed beam	!	!LO:TX:t=P:problem=mixed beam	!	!	!	!	!	!	!	!	!	!	!
8d\L	.	.	.	8f#/L	.	8d/L	.	.	.	.	8d\L	Ma-	.	.	.	.	.
8F#\J	.	.	.	8dd\J	.	8ff#\J	.	.	.	.	8F#\J	.	.	.	.	.	.
=5	=5	=5	=5	=5	=5	=5	=5	=5	=5	=5	=5	=5	=5	=5	=5	=5	=5
*2\right	*	*	*	*2\right	*	*2\right	*	*	*	*	*	*	*	*	*	*	*
!	!	!	!	!	!LO:TX:t=P:problem=2\right&colon; global	!	!	!	!	!	!	!	!	!	!	!	!
2G\	.	1ryy	.	2b\	1ryy	8ff#\L	1ryy	1ryy	1ryy	1ryy	8F#\L	-ja-	1r	1r	1r	1r	1r
.	.	.	.	.	.	8ee\J	.	.	.	.	8E\J	.	.	.	.	.	.
.	.	.	.	.	.	2ee\	.	.	.	.	2E\	-li-	.	.	.	.	.
2A\	.	.	.	2cc#\	.	.	.	.	.	.	.	.	.	.	.	.	.
.	.	.	.	.	.	4ff#\	.	.	.	.	4F#\	-bus	.	.	.	.	.
!	!	!	!	!	!	!	!	!	!	!	!LO:LB:g=original	!	!	!	!	!	!
=6	=6	=6	=6	=6	=6	=6	=6	=6	=6	=6	=6	=6	=6	=6	=6	=6	=6
2B\	.	1ryy	.	2dd\	1ryy	8aa\L	1ryy	1ryy	1ryy	1ryy	4.G\	fe-	1r	1r	1r	1r	1r
.	.	.	.	.	.	8gg\J	.	.	.	.	.	.	.	.	.	.	.
.	.	.	.	.	.	2gg\	.	.	.	.	.	.	.	.	.	.	.
.	.	.	.	.	.	.	.	.	.	.	8G\	.	.	.	.	.	.
2A\	.	.	.	2cc#\	.	.	.	.	.	.	2F#\	-rys	.	.	.	.	.
.	.	.	.	.	.	4ff#\	.	.	.	.	.	.	.	.	.	.	.
=7	=7	=7	=7	=7	=7	=7	=7	=7	=7	=7	=7	=7	=7	=7	=7	=7	=7
2G\	.	1ryy	.	2b\	1ryy	8ff#\L	1ryy	1ryy	1ryy	1ryy	8F#\L	Ma-	1r	1r	1r	1r	1r
.	.	.	.	.	.	8ee\J	.	.	.	.	8E\J	.	.	.	.	.	.
.	.	.	.	.	.	2ee\	.	.	.	.	4.E\	-ja-	.	.	.	.	.
2A\	.	.	.	2cc#\	.	.	.	.	.	.	.	.	.	.	.	.	.
.	.	.	.	.	.	.	.	.	.	.	8E\	-li-	.	.	.	.	.
.	.	.	.	.	.	4ff#\	.	.	.	.	4F#\	-bus	.	.	.	.	.
!	!	!	!	!	!	!LO:LB:g=original	!	!	!	!	!	!	!	!	!	!	!
=8	=8	=8	=8	=8	=8	=8	=8	=8	=8	=8	=8	=8	=8	=8	=8	=8	=8
2B\	.	1ryy	.	2dd\	1ryy	8aa\L	1ryy	1ryy	1ryy	1ryy	4.G\	fe-	1r	1r	1r	1r	1r
.	.	.	.	.	.	8gg\J	.	.	.	.	.	.	.	.	.	.	.
.	.	.	.	.	.	2gg\	.	.	.	.	.	.	.	.	.	.	.
.	.	.	.	.	.	.	.	.	.	.	8G\	.	.	.	.	.	.
2A\	.	.	.	2cc#\	.	.	.	.	.	.	2F#\	-rys	.	.	.	.	.
.	.	.	.	.	.	4ff#\	.	.	.	.	.	.	.	.	.	.	.
!	!	!	!	!	!	!	!	!	!	!	!	!	!	!	!LO:LB:g=original	!LO:LB:g=original	!
=9	=9	=9	=9	=9	=9	=9	=9	=9	=9	=9	=9	=9	=9	=9	=9	=9	=9
4G\	.	1ryy	.	4b\	1ryy	4ee\	1ryy	1ryy	1ryy	1ryy	4E\	ef-	1r	4r	4r	4r	4r
4G\	.	.	.	8b\L	.	8gg\L	.	.	.	.	8G\L	-fli-	.	4e\	4g\	4ee\	4gg\
.	.	.	.	8g\J	.	8ee\J	.	.	.	.	8E\J	.	.	.	.	.	.
4A\	.	.	.	4f#/	.	4dd\	.	.	.	.	4D\	.	.	4d\	4f#\	4dd\	4ff#\
!	!	!LO:TX:b:t=V C&colon;	!	!	!	!	!	!	!	!	!	!	!	!	!	!	!
4AA/	.	.	.	4e/	.	4cc#\	.	.	.	.	4C#\	-ru-	.	4A/	4e\	4cc#\	4ee\
!LO:PB:g=original	!	!	!	!	!	!	!	!	!	!	!	!	!	!	!	!	!LO:LB:g=original
=10	=10	=10	=10	=10	=10	=10	=10	=10	=10	=10	=10	=10	=10	=10	=10	=10	=10
!	!	!LO:TX:a:t=podpowiedź&colon; skan 027	!	!	!	!	!	!	!	!	!	!	!	!	!	!	!
8F#\L	.	1ryy	.	8f#/L	1ryy	4dd\	1ryy	1ryy	1ryy	1ryy	4D\	-i.	4D\	4F#/	4d\	4f#/	4dd\
8D\	.	.	.	8a/J	.	.	.	.	.	.	.	.	.	.	.	.	.
*	*	*	*	*tremolo	*	*	*	*	*	*	*	*	*	*	*	*	*
8F#\	.	.	.	16A/LL	.	8ff#\L	.	.	.	.	8F#\	quid	4r	4r	4r	4r	4r
.	.	.	.	16A/	.	.	.	.	.	.	.	.	.	.	.	.	.
8D\J	.	.	.	16A/	.	8aa\J	.	.	.	.	8A\	ni	.	.	.	.	.
.	.	.	.	16A/JJ	.	.	.	.	.	.	.	.	.	.	.	.	.
!	!	!	!	!LO:LB:g=original	!	!	!	!	!	!	!	!	!	!	!	!	!
*	*	*	*	*	*	*	*	*	*	*	*	*	*	*2\right	*2\right	*2\right	*2\right
8E\L	.	.	.	16A/LL	.	8gg\L	.	.	.	.	8G\	fi-	2r	2A/	2e\	2a\	2gg\
.	.	.	.	16A/	.	.	.	.	.	.	.	.	.	.	.	.	.
8G\	.	.	.	16A/	.	8ee\	.	.	.	.	8E\	-lys	.	.	.	.	.
.	.	.	.	16A/	.	.	.	.	.	.	.	.	.	.	.	.	.
8A\	.	.	.	16A/	.	8cc#\	.	.	.	.	8D\	.	.	.	.	.	.
.	.	.	.	16A/	.	.	.	.	.	.	.	.	.	.	.	.	.
8G\J	.	.	.	16A/	.	8a\J	.	.	.	.	8C#\	ju-	.	.	.	.	.
.	.	.	.	16A/JJ	.	.	.	.	.	.	.	.	.	.	.	.	.
=11	=11	=11	=11	=11	=11	=11	=11	=11	=11	=11	=11	=11	=11	=11	=11	=11	=11
8F#\L	.	1ryy	.	16A/LL	1ryy	8dd\L	1ryy	1ryy	1ryy	1ryy	8D\L	-cun-	4D\	4F#/	4d\	4a\	4ff#\
.	.	.	.	16A/	.	.	.	.	.	.	.	.	.	.	.	.	.
8D\	.	.	.	16A/	.	8a\	.	.	.	.	8AA\J	.	.	.	.	.	.
.	.	.	.	16A/	.	.	.	.	.	.	.	.	.	.	.	.	.
8F#\	.	.	.	16A/	.	8ff#\	.	.	.	.	8F#\	-de	4r	4r	4r	4r	4r
.	.	.	.	16A/	.	.	.	.	.	.	.	.	.	.	.	.	.
8D\J	.	.	.	16A/	.	8aa\J	.	.	.	.	8A\	ju-	.	.	.	.	.
.	.	.	.	16A/JJ	.	.	.	.	.	.	.	.	.	.	.	.	.
8E\L	.	.	.	16A/LL	.	8gg\L	.	.	.	.	8G\	-cun-	2r	2A/	2e\	2r	2r
.	.	.	.	16A/	.	.	.	.	.	.	.	.	.	.	.	.	.
8G\	.	.	.	16A/	.	8ee\	.	.	.	.	8E\	.	.	.	.	.	.
.	.	.	.	16A/	.	.	.	.	.	.	.	.	.	.	.	.	.
8A\	.	.	.	16A/	.	8cc#\	.	.	.	.	8D\	-de	.	.	.	.	.
.	.	.	.	16A/	.	.	.	.	.	.	.	.	.	.	.	.	.
8G\J	.	.	.	16A/	.	8a\J	.	.	.	.	8C#\	plau-	.	.	.	.	.
.	.	.	.	16A/JJ	.	.	.	.	.	.	.	.	.	.	.	.	.
!	!	!	!	!	!	!	!	!	!	!	!LO:LB:g=original	!	!	!LO:LB:g=original	!	!	!
=12	=12	=12	=12	=12	=12	=12	=12	=12	=12	=12	=12	=12	=12	=12	=12	=12	=12
8F#\L	.	1ryy	.	16A/LL	1ryy	8dd\L	1ryy	1ryy	1ryy	1ryy	8D\	-dem-	4D\	4F#/	4f#\	2r	2r
.	.	.	.	16A/	.	.	.	.	.	.	.	.	.	.	.	.	.
8D\	.	.	.	16A/	.	8a\	.	.	.	.	8AA\	-us	.	.	.	.	.
.	.	.	.	16A/	.	.	.	.	.	.	.	.	.	.	.	.	.
8F#\	.	.	.	16A/	.	8ff#\	.	.	.	.	8D\	ac-	4r	4r	4r	.	.
.	.	.	.	16A/	.	.	.	.	.	.	.	.	.	.	.	.	.
8D\J	.	.	.	16A/	.	8aa\J	.	.	.	.	8A\	.	.	.	.	.	.
.	.	.	.	16A/JJ	.	.	.	.	.	.	.	.	.	.	.	.	.
8E\L	.	.	.	16A/LL	.	8gg\L	.	.	.	.	8G\	-le-	2r	2A/	2e\	2a\	2gg\
.	.	.	.	16A/	.	.	.	.	.	.	.	.	.	.	.	.	.
8G\	.	.	.	16A/	.	8ee\	.	.	.	.	8E\	-te	.	.	.	.	.
.	.	.	.	16A/	.	.	.	.	.	.	.	.	.	.	.	.	.
8A\	.	.	.	16A/	.	8cc#\	.	.	.	.	8D\	ju-	.	.	.	.	.
.	.	.	.	16A/	.	.	.	.	.	.	.	.	.	.	.	.	.
8G\J	.	.	.	16A/	.	8a\J	.	.	.	.	8C#\	-bi-	.	.	.	.	.
.	.	.	.	16A/JJ	.	.	.	.	.	.	.	.	.	.	.	.	.
*	*	*	*	*Xtremolo	*	*	*	*	*	*	*	*	*	*	*	*	*
=13	=13	=13	=13	=13	=13	=13	=13	=13	=13	=13	=13	=13	=13	=13	=13	=13	=13
8F#\L	.	1ryy	.	4A/	1ryy	8dd\L	1ryy	1ryy	1ryy	1ryy	8D/L	-lan-	4D\	4F#/	4d\	4a\	4ff#\
8D\J	.	.	.	.	.	8a\J	.	.	.	.	8AA/J	-tum	.	.	.	.	.
4F#\	.	.	.	8f#|/L	.	8f#\L	.	.	.	.	4F#\	ju-	4r	4r	4r	4r	4r
.	.	.	.	8dd|/J	.	8dd\J	.	.	.	.	.	.	.	.	.	.	.
4G\	.	.	.	8g|/L	.	8g\L	.	.	.	.	4G\	.	2r	2r	2r	2r	2r
.	.	.	.	8dd|/	.	8dd\	.	.	.	.	.	.	.	.	.	.	.
4A\	.	.	.	8a|/	.	8a\	.	.	.	.	4A\	-cun-	.	.	.	.	.
.	.	.	.	8dd|/J	.	8dd\J	.	.	.	.	.	.	.	.	.	.	.
=14	=14	=14	=14	=14	=14	=14	=14	=14	=14	=14	=14	=14	=14	=14	=14	=14	=14
4B\	.	1ryy	.	8b/L	1ryy	8b\L	1ryy	1ryy	1ryy	1ryy	4B\	-de	1r	1r	1r	1r	1r
.	.	.	.	8dd/	.	8dd\	.	.	.	.	.	.	.	.	.	.	.
4A\	.	.	.	8a/	.	8a\	.	.	.	.	4A\	plau-	.	.	.	.	.
.	.	.	.	8dd/J	.	8dd\J	.	.	.	.	.	.	.	.	.	.	.
4G#X\	.	.	.	8g#X/L	.	8g#X\L	.	.	.	.	4G#X\	-den-	.	.	.	.	.
.	.	.	.	8dd/	.	8dd\	.	.	.	.	.	.	.	.	.	.	.
4A\	.	.	.	8a/	.	8a\	.	.	.	.	4A\	-dum	.	.	.	.	.
.	.	.	.	8dd/J	.	8dd\J	.	.	.	.	.	.	.	.	.	.	.
=15	=15	=15	=15	=15	=15	=15	=15	=15	=15	=15	=15	=15	=15	=15	=15	=15	=15
4B-X\	.	1ryy	.	8b-X/L	1ryy	8b-X\L	1ryy	1ryy	1ryy	1ryy	4B-X\	ac-	1r	1r	1r	1r	1r
.	.	.	.	8dd/	.	8dd\	.	.	.	.	.	.	.	.	.	.	.
4A\	.	.	.	8a/	.	8a\	.	.	.	.	4A\	.	.	.	.	.	.
.	.	.	.	8dd/J	.	8dd\J	.	.	.	.	.	.	.	.	.	.	.
4G#X\	.	.	.	8g#X/L	.	8g#X\L	.	.	.	.	4G#X\	-le-	.	.	.	.	.
.	.	.	.	8dd/	.	8dd\	.	.	.	.	.	.	.	.	.	.	.
4A\	.	.	.	8a/	.	8a\	.	.	.	.	4A\	-te	.	.	.	.	.
.	.	.	.	8dd/J	.	8dd\J	.	.	.	.	.	.	.	.	.	.	.
!	!	!	!	!	!	!LO:LB:g=original	!	!	!	!	!	!	!	!	!	!	!
=16	=16	=16	=16	=16	=16	=16	=16	=16	=16	=16	=16	=16	=16	=16	=16	=16	=16
4Bn\	.	1ryy	.	8bn/L	1ryy	8bnX\L	1ryy	1ryy	1ryy	1ryy	4Bn\	ju-	1r	1r	1r	1r	1r
.	.	.	.	8dd/	.	8dd\	.	.	.	.	.	.	.	.	.	.	.
4A\	.	.	.	8a/	.	8a\	.	.	.	.	4A\	-di-	.	.	.	.	.
.	.	.	.	8dd/J	.	8dd\J	.	.	.	.	.	.	.	.	.	.	.
4G#X\	.	.	.	8g#X/L	.	8g#X\L	.	.	.	.	4G#X\	-can-	.	.	.	.	.
.	.	.	.	8dd/	.	8dd\	.	.	.	.	.	.	.	.	.	.	.
4A\	.	.	.	8g#/	.	8g#\	.	.	.	.	4G#\	.	.	.	.	.	.
.	.	.	.	8dd/J	.	8dd\J	.	.	.	.	.	.	.	.	.	.	.
=17	=17	=17	=17	=17	=17	=17	=17	=17	=17	=17	=17	=17	=17	=17	=17	=17	=17
!	!	!	!	!	!LO:TX:t=P:pion:problem	!	!LO:TX:t=P:pion:problem	!	!	!	!LO:TX:t=P:pion:problem	!	!LO:TX:t=P:pion:problem	!LO:TX:t=P:pion:problem	!LO:TX:t=P:pion:problem	!LO:TX:t=P:pion:problem	!LO:TX:t=P:pion:problem
4Bn\	.	1ryy	.	1ryy	1ryy	1ryy	1ryy	1ryy	1ryy	1ryy	1ryy	.	1ryy	1ryy	1ryy	1ryy	1ryy
4A\	.	.	.	.	.	.	.	.	.	.	.	.	.	.	.	.	.
4G#X\	.	.	.	.	.	.	.	.	.	.	.	.	.	.	.	.	.
4G#\	.	.	.	.	.	.	.	.	.	.	.	.	.	.	.	.	.
=18	=18	=18	=18	=18	=18	=18	=18	=18	=18	=18	=18	=18	=18	=18	=18	=18	=18
4A\	.	1ryy	.	4a/	1ryy	4a\	1ryy	1ryy	1ryy	1ryy	4A\	-dum	1r	1r	1r	4r	4r
4A\	.	.	.	4dd\	.	4bb\	.	.	.	.	4B\	ju-	.	.	.	4dd\	4bb\
8F#\L	.	.	.	8ff#\L	.	8aa\L	.	.	.	.	8A\	.	.	.	.	8ff#\L	8aa\L
8B\	.	.	.	8dd\	.	8ff#\	.	.	.	.	8F#\	-bi-	.	.	.	8dd\	8ff#\
8G\	.	.	.	8ee\	.	8gg\	.	.	.	.	8G\	-lan-	.	.	.	8ee\	8gg\
8A\J	.	.	.	8cc#\J	.	8ee\J	.	.	.	.	8E\	.	.	.	.	8cc#\J	8ee\J
!LO:LB:g=original	!	!	!	!	!	!	!	!	!	!	!LO:PB:g=original	!	!	!	!	!	!
=19	=19	=19	=19	=19	=19	=19	=19	=19	=19	=19	=19	=19	=19	=19	=19	=19	=19
4D\	.	1ryy	.	4f#/	1ryy	4dd\	1ryy	1ryy	1ryy	1ryy	4D\	-dum	1r	1r	1r	4r	4ff#\
4G\	.	.	.	4dd\	.	4bb\	.	.	.	.	4B\	ju-	.	.	.	4dd\	4bb\
8F#\L	.	.	.	8ff#\L	.	8aa\L	.	.	.	.	8A\	-bi-	.	.	.	8ff#\L	8aa\L
8B\	.	.	.	8dd\	.	8ff#\	.	.	.	.	8F#\	.	.	.	.	8dd\	8ff#\
8G\	.	.	.	8ee\	.	8gg\	.	.	.	.	8G\L	-lan-	.	.	.	8ee\	8gg\
8A\J	.	.	.	8cc#\J	.	8ee\J	.	.	.	.	8E\J	.	.	.	.	8cc#\J	8ee\J
=20	=20	=20	=20	=20	=20	=20	=20	=20	=20	=20	=20	=20	=20	=20	=20	=20	=20
4D\	.	1ryy	.	4f#/	1ryy	4dd\	1ryy	1ryy	1ryy	1ryy	4D\	-dum	1r	1r	1r	4f#/	4dd\
!	!	!	!	!LO:TX:t=P:problem=mixed beam	!LO:TX:t=P:problem=mixed beam	!	!	!	!	!	!	!	!	!	!	!	!
4F#\	.	.	.	8f#/L	.	8f#\L	.	.	.	.	4F#\	.	.	.	.	4r	4r
.	.	.	.	8dd\J	.	8dd\J	.	.	.	.	.	.	.	.	.	.	.
!	!	!	!	!LO:LB:g=original	!	!	!	!	!	!	!	!	!	!	!	!	!
4G\	.	.	.	8g/L	.	8g\L	.	.	.	.	4G\	ju-	.	.	.	2r	2r
.	.	.	.	8dd/	.	8dd\	.	.	.	.	.	.	.	.	.	.	.
4A\	.	.	.	8a/	.	8a\	.	.	.	.	4A\	-cun-	.	.	.	.	.
.	.	.	.	8dd/J	.	8dd\J	.	.	.	.	.	.	.	.	.	.	.
=21	=21	=21	=21	=21	=21	=21	=21	=21	=21	=21	=21	=21	=21	=21	=21	=21	=21
4B\	.	1ryy	.	8b/L	1ryy	8b\L	1ryy	1ryy	1ryy	1ryy	4B\	-de	1r	1r	1r	1r	1r
.	.	.	.	8dd/	.	8dd\	.	.	.	.	.	.	.	.	.	.	.
4A\	.	.	.	8a/	.	8a\	.	.	.	.	4A\	plau-	.	.	.	.	.
.	.	.	.	8dd/J	.	8dd\J	.	.	.	.	.	.	.	.	.	.	.
4G#X\	.	.	.	8g#X/L	.	8g#X\L	.	.	.	.	4G#X\	-den-	.	.	.	.	.
.	.	.	.	8dd/	.	8dd\	.	.	.	.	.	.	.	.	.	.	.
4A\	.	.	.	8a/	.	8a\	.	.	.	.	4A\	-dum	.	.	.	.	.
.	.	.	.	8dd/J	.	8dd\J	.	.	.	.	.	.	.	.	.	.	.
=22	=22	=22	=22	=22	=22	=22	=22	=22	=22	=22	=22	=22	=22	=22	=22	=22	=22
4B-X\	.	1ryy	.	8b-X/L	1ryy	8b-X\L	1ryy	1ryy	1ryy	1ryy	(4B-X\	ac-	1r	1r	1r	1r	1r
.	.	.	.	8dd/	.	8dd\	.	.	.	.	.	.	.	.	.	.	.
4A\	.	.	.	8a/	.	8a\	.	.	.	.	4A\)	.	.	.	.	.	.
.	.	.	.	8dd/J	.	8dd\J	.	.	.	.	.	.	.	.	.	.	.
4G#X\	.	.	.	8g#X/L	.	8g#X\L	.	.	.	.	4G#X\	-le-	.	.	.	.	.
.	.	.	.	8dd/	.	8dd\	.	.	.	.	.	.	.	.	.	.	.
4A\	.	.	.	8a/	.	8a\	.	.	.	.	4A\	-te	.	.	.	.	.
.	.	.	.	8dd/J	.	8dd\J	.	.	.	.	.	.	.	.	.	.	.
=23	=23	=23	=23	=23	=23	=23	=23	=23	=23	=23	=23	=23	=23	=23	=23	=23	=23
4Bn\	.	1ryy	.	8bn/L	1ryy	8bn\L	1ryy	1ryy	1ryy	1ryy	4Bn\	ju-	1r	1r	1r	1r	1r
.	.	.	.	8dd/	.	8dd\	.	.	.	.	.	.	.	.	.	.	.
4A\	.	.	.	8a/	.	8a\	.	.	.	.	4A\	-bi-	.	.	.	.	.
.	.	.	.	8dd/J	.	8dd\J	.	.	.	.	.	.	.	.	.	.	.
4G#X\	.	.	.	8g#X/L	.	8g#X\L	.	.	.	.	4G#X\	-lan-	.	.	.	.	.
.	.	.	.	8dd/	.	8dd\	.	.	.	.	.	.	.	.	.	.	.
4G#\	.	.	.	8g#/	.	8g#\	.	.	.	.	4G#\	.	.	.	.	.	.
.	.	.	.	8dd/J	.	8dd\J	.	.	.	.	.	.	.	.	.	.	.
!	!	!	!	!	!	!	!	!	!	!	!	!	!	!	!	!LO:LB:g=original	!
=24	=24	=24	=24	=24	=24	=24	=24	=24	=24	=24	=24	=24	=24	=24	=24	=24	=24
4A\	.	1ryy	.	4a/	1ryy	4a\	1ryy	1ryy	1ryy	1ryy	4A\	-dum	1r	1r	1r	4r	4r
8B\L	.	.	.	4dd\	.	4bb\	.	.	.	.	4B\	ju-	.	.	.	4dd\	4bb\
8G\J	.	.	.	.	.	.	.	.	.	.	.	.	.	.	.	.	.
!	!	!	!	!	!	!LO:LB:g=original	!	!	!	!	!	!	!	!	!	!	!
8F#\L	.	.	.	8ff#\L	.	8aa\L	.	.	.	.	8A\	.	.	.	.	8ff#\L	8aa\L
8B\	.	.	.	8dd\	.	8ff#\	.	.	.	.	8F#\	-bi-	.	.	.	8dd\	8ff#\
8G\	.	.	.	8ee\	.	8gg\	.	.	.	.	8G\L	-lan-	.	.	.	8ee\	8gg\
8A\J	.	.	.	8cc#\J	.	8ee\J	.	.	.	.	8E\J	.	.	.	.	8cc#\J	8ee\J
!	!	!	!	!	!	!	!	!	!	!	!LO:LB:g=original	!	!	!	!	!	!
=25	=25	=25	=25	=25	=25	=25	=25	=25	=25	=25	=25	=25	=25	=25	=25	=25	=25
4D\	.	1ryy	.	4f#/	1ryy	4dd\	1ryy	1ryy	1ryy	1ryy	4D\	-dum	1r	1r	1r	4dd\	4ff#\
4G\	.	.	.	4dd\	.	4bb\	.	.	.	.	4B\	ju-	.	.	.	4dd\	4bb\
8F#\L	.	.	.	8ff#\L	.	8aa\L	.	.	.	.	8A\L	-bi-	.	.	.	8ff#\L	8aa\L
8B\	.	.	.	8dd\	.	8ff#\	.	.	.	.	8F#\J	.	.	.	.	8dd\	8ff#\
8G\	.	.	.	8ee\	.	8gg\	.	.	.	.	8G\L	-lan-	.	.	.	8ee\	8gg\
8A\J	.	.	.	8cc#\J	.	8ee\J	.	.	.	.	8E\J	.	.	.	.	8cc#\J	8ee\J
!	!	!	!	!	!	!	!	!	!	!	!	!	!	!	!	!	!LO:LB:g=original
=26	=26	=26	=26	=26	=26	=26	=26	=26	=26	=26	=26	=26	=26	=26	=26	=26	=26
!	!LO:DY:b:t=for	!	!	!	!	!	!	!	!	!	!	!	!	!	!	!	!
4D\	f	1ryy	.	4a/	1ryy	4dd\	1ryy	1ryy	1ryy	1ryy	2D\	-dum	4D\	4F#/	4d\	4f#/	4dd\
4D\	.	.	.	(16bb\LL	.	(16ddd\LL	.	.	.	.	.	.	4r	4r	4r	4r	4r
.	.	.	.	16aa\)	.	16ccc#\)	.	.	.	.	.	.	.	.	.	.	.
.	.	.	.	(16gg\	.	(16bb\	.	.	.	.	.	.	.	.	.	.	.
.	.	.	.	16ff#\JJ)	.	16aa\JJ)	.	.	.	.	.	.	.	.	.	.	.
4D\	.	.	.	4ff#|\	.	4aa\	.	.	.	.	2r	.	2r	2r	2r	2r	2r
8D\L	.	.	.	(16b\LL	.	(16gg\LL	.	.	.	.	.	.	.	.	.	.	.
.	.	.	.	16a\)	.	16ff#\)	.	.	.	.	.	.	.	.	.	.	.
8AA\J	.	.	.	(16g\	.	(16ee\	.	.	.	.	.	.	.	.	.	.	.
.	.	.	.	16f#\JJ)	.	16dd\JJ)	.	.	.	.	.	.	.	.	.	.	.
!LO:LB:g=original	!	!	!	!	!	!	!	!	!	!	!	!	!	!	!	!	!
=27	=27	=27	=27	=27	=27	=27	=27	=27	=27	=27	=27	=27	=27	=27	=27	=27	=27
4DD/	.	1ryy	.	4f#/	1ryy	4dd\	1ryy	1ryy	1ryy	1ryy	1r	.	4D\	4F#/	4d\	4f#/	4dd\
4D\	.	.	.	(16bb\LL	.	(16ddd\LL	.	.	.	.	.	.	4r	4r	4r	4r	4r
.	.	.	.	16aa\)	.	16ccc#\)	.	.	.	.	.	.	.	.	.	.	.
.	.	.	.	(16gg\	.	(16bb\	.	.	.	.	.	.	.	.	.	.	.
.	.	.	.	16ff#\JJ)	.	16aa\JJ)	.	.	.	.	.	.	.	.	.	.	.
4D\	.	.	.	4ff#|\	.	4aa\	.	.	.	.	.	.	2r	2r	2r	2r	2r
8D\L	.	.	.	(16b\LL	.	(16gg\LL	.	.	.	.	.	.	.	.	.	.	.
.	.	.	.	16a\)	.	16ff#\)	.	.	.	.	.	.	.	.	.	.	.
8AA\J	.	.	.	(16g\	.	(16ee\	.	.	.	.	.	.	.	.	.	.	.
.	.	.	.	16f#\JJ)	.	16dd\JJ)	.	.	.	.	.	.	.	.	.	.	.
!	!	!	!	!LO:LB:g=original	!	!	!	!	!	!	!	!	!	!	!	!	!
=28	=28	=28	=28	=28	=28	=28	=28	=28	=28	=28	=28	=28	=28	=28	=28	=28	=28
!	!	!	!	!	!	!	!	!	!	!	!	!	!	!LO:TX:a:t=2	!	!	!
8D\L	.	1ryy	.	8f#/L	1ryy	8dd|\L	1ryy	1ryy	1ryy	1ryy	1r	.	4D\	1r	1r	1r	1r
8FF#\	.	.	.	8f#/	.	8f#|\	.	.	.	.	.	.	.	.	.	.	.
8GG\	.	.	.	8g/	.	8g|\	.	.	.	.	.	.	4r	.	.	.	.
8AA\J	.	.	.	8a/J	.	8a|\J	.	.	.	.	.	.	.	.	.	.	.
8BB\L	.	.	.	8b\L	.	8b\L	.	.	.	.	.	.	2r	.	.	.	.
8C#\	.	.	.	8cc#\	.	8cc#\	.	.	.	.	.	.	.	.	.	.	.
8D\	.	.	.	8dd\	.	8dd\	.	.	.	.	.	.	.	.	.	.	.
8E\J	.	.	.	8ee\J	.	8ee\J	.	.	.	.	.	.	.	.	.	.	.
!	!	!	!	!	!	!	!	!	!	!	!	!	!LO:LB:g=original	!	!	!	!
=29	=29	=29	=29	=29	=29	=29	=29	=29	=29	=29	=29	=29	=29	=29	=29	=29	=29
!	!	!	!	!	!	!LO:TX:t=P:problem=mixed beam	!LO:TX:t=P:problem=mixed beam	!	!	!	!	!	!	!	!	!	!
8F#\L	.	1ryy	.	8ff#\L	1ryy	8ff#\L	1ryy	1ryy	1ryy	1ryy	1r	.	1r	1r	1r	1r	1r
8C#\	.	.	.	8cc#\	.	8gg\	.	.	.	.	.	.	.	.	.	.	.
8D\	.	.	.	8dd\	.	8aa\	.	.	.	.	.	.	.	.	.	.	.
8E\J	.	.	.	8f#\J	.	8f#/J	.	.	.	.	.	.	.	.	.	.	.
8.G\L	.	.	.	8.g/L	.	8.g/L	.	.	.	.	.	.	.	.	.	.	.
32F#\LL	.	.	.	32f#/LL	.	32f#/LL	.	.	.	.	.	.	.	.	.	.	.
32G\JJJ	.	.	.	32g/JJJ	.	32g/JJJ	.	.	.	.	.	.	.	.	.	.	.
!LO:TX:t=P:problem=mixed beam	!	!LO:TX:t=P:problem=mixed beam	!	!	!	!	!	!	!	!	!	!	!	!	!	!	!
8A\L	.	.	.	8a/L	.	8a/L	.	.	.	.	.	.	.	.	.	.	.
8AA/J	.	.	.	8A/J	.	8A/J	.	.	.	.	.	.	.	.	.	.	.
!	!	!	!	!	!	!LO:LB:g=original	!	!	!	!	!	!	!	!	!	!	!
=30	=30	=30	=30	=30	=30	=30	=30	=30	=30	=30	=30	=30	=30	=30	=30	=30	=30
*	*	*	*	*	*	*	*	*	*	*	*	*	*	*tremolo	*	*	*
*	*	*	*	*	*	*	*	*	*	*	*	*	*	*	*tremolo	*	*
*	*	*	*	*	*	*	*	*	*	*	*	*	*	*	*	*tremolo	*
*	*	*	*	*	*	*	*	*	*	*	*	*	*	*	*	*	*tremolo
!	!	!	!	!	!	!	!LO:TX:t=P:problem=zapis niewyraźny	!	!	!	!	!	!	!	!	!	!
!	!	!	!	!LO:TX:t=P:problem=mixed beam	!	!LO:TX:t=P:problem=mixed beam	!LO:TX:t=P:problem=mixed beam	!	!	!	!	!	!	!	!	!	!
4D\	.	1ryy	.	8d/L	1ryy	8d/L	1ryy	1ryy	1ryy	1ryy	1r	.	8D\L	8F#/L	8d\L	8f#/L	8dd\L
.	.	.	.	16d\L 16a 16ff#	.	8d\ 8a 8ff#	.	.	.	.	.	.	8D\	8F#/	8d\	8f#/	8dd\
.	.	.	.	16d\JJ 16a 16ff#	.	.	.	.	.	.	.	.	.	.	.	.	.
8D\L	.	.	.	8d\L 8a 8ff#	.	16d\L 16a 16ff#	.	.	.	.	.	.	8D\	8F#/	8d\	8f#/	8dd\
.	.	.	.	.	.	16d\J 16a 16ff#	.	.	.	.	.	.	.	.	.	.	.
8D\J	.	.	.	8d\J 8a 8ff#	.	8d\J 8a 8ff#	.	.	.	.	.	.	8D\J	8F#/J	8d\J	8f#/J	8dd\J
*	*	*	*	*	*	*	*	*	*	*	*	*	*	*	*	*	*Xtremolo
*	*	*	*	*	*	*	*	*	*	*	*	*	*	*	*	*Xtremolo	*
*	*	*	*	*	*	*	*	*	*	*	*	*	*	*	*Xtremolo	*	*
*	*	*	*	*	*	*	*	*	*	*	*	*	*	*Xtremolo	*	*	*
4D\	.	.	.	4d\ 4a 4ff#	.	4d\ 4a 4ff#	.	.	.	.	.	.	4D\	4F#/	4d\	4f#/	4dd\
4r	.	.	.	4r	.	4r	.	.	.	.	.	.	4r	4r	4r	4r	4r
=31	=31	=31	=31	=31	=31	=31	=31	=31	=31	=31	=31	=31	=31	=31	=31	=31	=31
!	!	!LO:TX:t=P:pion:problem	!	!	!LO:TX:t=P:pion:problem	!	!LO:TX:t=P:pion:problem	!	!	!	!	!	!LO:TX:t=P:pion:problem	!LO:TX:t=P:pion:problem	!LO:TX:t=P:pion:problem	!LO:TX:t=P:pion:problem	!LO:TX:t=P:pion:problem
1ryy	.	1ryy	.	1ryy	1ryy	1ryy	1ryy	1ryy	1ryy	1ryy	1r	.	1ryy	1ryy	1ryy	1ryy	1ryy
==	==	==	==	==	==	==	==	==	==	==	==	==	==	==	==	==	==
*-	*-	*-	*-	*-	*-	*-	*-	*-	*-	*-	*-	*-	*-	*-	*-	*-	*-
!!!RDF**kern: | = vertical stroke
!!!system-decoration: [(s1,s2)][(s3,s4)][(s5)][({(s6,s7)}s8,s9)][({(s10,s11)}{(s12,s13)})]{(s14,s15)}
!!!ENC: Andrzej Gręziak
!!!END: 2020-10-07
!!!ENC: Urszula Świątek
!!!END: 2022-01-28
!!!YEC: Copyright 2022 Narodowy Instytut Fryderyka Chopina (https://polishscores.org)
!!!YEM: License CC-BY-4.0 (https://creativecommons.org/licenses/by/4.0)
